packages/sources/icons/src/vitamix/macbook-line.svg

<svg width="16" height="16" viewBox="0 0 16 16" fill="none" xmlns="http://www.w3.org/2000/svg">
<path fill-rule="evenodd" clip-rule="evenodd" d="M1.33333 2.67133C1.33333 2.30067 1.63667 2 1.99467 2H14.0053C14.3707 2 14.6667 2.29933 14.6667 2.67133V12H1.33333V2.67133ZM2.66667 3.33333V10.6667H13.3333V3.33333H2.66667ZM15.3333 12.6667H0.666666V14H15.3333V12.6667Z" fill="#001018"/>
</svg>

<svg width="16" height="16" fill="none" xmlns="http://www.w3.org/2000/svg"><path fill-rule="evenodd" clip-rule="evenodd" d="M1.333 2.671c0-.37.304-.671.662-.671h12.01c.366 0 .662.3.662.671V12H1.333V2.671zm1.334.662v7.334h10.666V3.333H2.667zm12.666 9.334H.667V14h14.666v-1.333z" fill="#001018"/></svg>
